apps/main-landing/src/app/components/set-up-section/assets/creators-lines-tablet.svg

<svg width="744" height="761" fill="none" xmlns="http://www.w3.org/2000/svg"><g opacity=".1" stroke="#55EB3C" stroke-width="2" stroke-miterlimit="10"><path d="M243.979 98.13h256.784c89.971 0 172.873 22.698 217.811 59.471L847.14 262.843c11.834 9.625 20.512 19.848 26.066 30.34 10.288 19.206 10.225 39.353-.252 58.515-5.46 10.193-13.917 20.118-25.31 29.505-.063.149-.315.298-.473.447l-35.439 29.042-35.534-29.042-57.561-47.144c-44.938-36.772-127.84-59.471-217.81-59.471H244.042c-89.97 0-172.872 22.699-217.81 59.471L-31.33 381.65l-35.44 29.042-35.47-29.042c-.158-.149-.41-.298-.473-.447-11.424-9.387-19.85-19.312-25.404-29.505-10.446-19.162-10.54-39.309-.253-58.516 5.618-10.491 14.296-20.714 26.13-30.339L26.231 157.6c44.939-36.772 127.841-59.47 217.811-59.47h-.063Z"/><path d="M243.978 40h256.785c89.97 0 172.872 22.7 217.81 59.471l128.566 105.242c33.198 27.147 41.877 58.889 26.066 88.468-5.396 10.193-13.759 20.073-24.993 29.46-.316.298-.726.567-1.042.88l-34.966 28.624-36.007 29.504-57.561-47.144c-44.938-36.772-127.84-59.471-217.81-59.471H244.042c-89.971 0-172.873 22.699-217.81 59.471l-57.562 47.144-35.944-29.504-34.966-28.624c-.315-.299-.726-.567-1.041-.88-11.266-9.388-19.629-19.282-25.088-29.46-15.842-29.579-7.069-61.321 26.129-88.468L26.231 99.471c44.938-36.772 127.84-59.47 217.81-59.47h-.063Z"/><path d="M243.98 157.108h256.784c89.971 0 172.873 22.699 217.811 59.471l128.566 105.242c.315.269.631.567 1.041.836 11.108 9.237 19.376 19.042 24.773 29.041 10.54 19.356 10.54 39.653 0 59.009-5.46 10.193-13.917 20.117-25.31 29.459-.157-.149-.315-.269-.473-.418l-35.439-29.041-35.534-29.042-57.561-47.144c-44.938-36.772-127.84-59.471-217.81-59.471H244.043c-89.97 0-172.872 22.699-217.81 59.471l-57.56 47.144-35.44 29.042-35.471 29.041c-.157.149-.315.269-.473.418-11.424-9.357-19.85-19.281-25.404-29.459-10.54-19.357-10.54-39.653 0-59.009 5.459-9.999 13.759-19.804 24.836-29.041.41-.269.726-.567 1.041-.836L26.233 216.579c44.938-36.772 127.84-59.471 217.81-59.471h-.063Z"/><path d="M243.981 216.071h256.784c89.971 0 172.873 22.699 217.811 59.471l93.6 76.619 34.965 28.623c.158.149.316.269.474.418 11.424 9.357 19.849 19.311 25.309 29.504 10.54 19.312 10.54 39.623 0 58.934-5.46-10.148-13.917-20.072-25.309-29.459-.158-.15-.316-.269-.474-.418l-35.439-29.042-35.534-29.041-57.561-47.144c-44.938-36.772-127.839-59.471-217.81-59.471H244.013c-89.971 0-172.873 22.699-217.81 59.471L-31.36 381.68l-35.439 29.041-35.47 29.042c-.158.149-.316.268-.474.418-11.424 9.387-19.85 19.311-25.404 29.459-10.54-19.311-10.54-39.622 0-58.934 5.554-10.193 13.98-20.147 25.404-29.504.158-.149.316-.269.474-.418l34.965-28.623 93.505-76.619c44.938-36.772 127.84-59.471 217.811-59.471h-.032ZM847.615 558.107c11.423-9.358 19.849-19.282 25.309-29.46 10.54 19.311 10.54 39.623 0 58.934-5.46 10.193-13.917 20.117-25.309 29.504-.063.149-.316.299-.474.463l-35.439 29.041-36.007 29.505-57.088 46.77c-44.938 36.772-127.839 59.471-217.81 59.471H244.013c-89.971 0-172.873-22.699-217.81-59.471l-57.088-46.771-35.945-29.504-35.47-29.041c-.158-.15-.411-.299-.474-.463-11.424-9.387-19.85-19.311-25.404-29.504-10.54-19.311-10.54-39.623 0-58.934 5.554 10.193 13.98 20.117 25.404 29.46.095.149.316.298.474.462l35.47 29.042 35.944 29.504 36.008 29.504 21.08 17.267c44.938 36.772 127.84 59.471 217.811 59.471h256.784c89.971 0 172.872-22.699 217.81-59.471l21.049-17.267 36.007-29.504 36.008-29.504 35.439-29.042c.158-.149.41-.298.473-.462h.032Z"/><path d="M847.141 558.57c.158-.149.41-.299.474-.463 11.423 9.387 19.849 19.311 25.309 29.46 10.54 19.356 10.54 39.652 0 59.008-5.46 10.193-13.917 20.117-25.309 29.459-.063.15-.316.299-.474.463l-35.439 29.042-93.095 76.275c-44.938 36.772-127.839 59.471-217.81 59.471H244.013c-89.971 0-172.873-22.699-217.81-59.471l-93.033-76.276-35.47-29.041c-.158-.149-.411-.299-.474-.463-11.424-9.357-19.85-19.281-25.404-29.459-10.54-19.356-10.54-39.652 0-59.009 5.554-10.148 12.97-18.848 24.394-28.25.095.149 1.326-.91 1.515-.761l35.47 29.041 35.945 29.505 36.007 29.504 21.08 17.266c44.939 36.772 127.84 59.471 217.811 59.471l256.784.001c89.971 0 172.873-22.699 217.811-59.471l21.049-17.267 36.007-29.504 36.007-29.505 35.439-29.041v.015Z"/><path d="m775.66 617.116 36.007-29.504 35.439 29.042c.158.149.316.268.473.418 11.424 9.357 19.85 19.311 25.31 29.504 10.54 19.311 10.54 39.622 0 58.934-5.46 10.193-13.917 20.117-25.31 29.504-.063.149-.315.298-.473.462L718.541 840.793c-44.938 36.772-127.84 59.471-217.811 59.471H243.946c-89.971 0-172.873-22.699-217.81-59.471l-128.472-105.317c-.157-.149-.41-.298-.473-.462-11.424-9.387-19.85-19.312-25.404-29.504-10.54-19.312-10.54-39.623 0-58.934 5.554-10.193 13.98-20.147 25.404-29.504.158-.15.316-.269.473-.418l35.471-29.042 35.944 29.504 36.007 29.505 21.08 17.266c44.939 36.772 127.841 59.471 217.811 59.471h256.785c89.97 0 172.872-22.699 217.81-59.471l21.049-17.266 36.007-29.505h.032Z"/><path d="m739.622 646.62 36.007-29.504 36.007 29.459 35.439 29.042c.158.149.316.269.474.418 11.424 9.387 19.849 19.311 25.309 29.459 10.54 19.356 10.54 39.653 0 59.009-5.554 10.342-14.138 20.415-25.814 29.922L718.478 899.741c-44.938 36.772-127.84 59.471-217.81 59.471H243.884c-89.971 0-172.873-22.699-217.81-59.471l-128.472-105.316c-11.645-9.507-20.26-19.58-25.877-29.922-10.54-19.356-10.54-39.653 0-59.009 5.554-10.148 13.98-20.072 25.404-29.459.157-.149.315-.269.473-.418l35.47-29.042 35.945-29.459L5.024 646.62l21.08 17.267c44.939 36.772 127.84 59.471 217.811 59.471h256.784c89.971 0 172.873-22.699 217.811-59.471l21.049-17.267h.063Z"/><path d="m718.574 663.887 21.049-17.267 36.007 29.459 36.007 29.46 35.439 29.041c.158.15.316.269.474.418 11.423 9.357 19.849 19.312 25.309 29.504 16.157 29.654 7.479 61.591-25.814 88.886L718.479 958.705c-44.938 36.772-127.84 59.475-217.811 59.475H243.884c-89.97 0-172.872-22.703-217.81-59.475l-128.471-105.317c-33.356-27.295-42.035-59.232-25.877-88.886 5.554-10.193 13.98-20.147 25.404-29.504.157-.149.315-.268.473-.418l35.47-29.041 35.945-29.46L5.025 646.62l21.08 17.267c44.938 36.772 127.84 59.471 217.811 59.471H500.7c89.971 0 172.873-22.699 217.811-59.471h.063Z"/></g><path d="M337 103c0-19.33 15.67-35 35-35s35 15.67 35 35-15.67 35-35 35-35-15.67-35-35Z" fill="#fff" fill-opacity=".3"/><path d="M337 103c0-19.33 15.67-35 35-35s35 15.67 35 35-15.67 35-35 35-35-15.67-35-35Z" stroke="url(#a)" stroke-width="2"/><path fill-rule="evenodd" clip-rule="evenodd" d="M363 113h6.75v-4.444H372v2.222h2.25V113H381v-6.667h-2.25v-2.222h-2.25v-2.222h2.25v-2.222H381V93h-6.75v2.222H372v2.223h-2.25V93H363v20Z" fill="#5FEB3C"/><path d="M624 177c0-19.33 15.67-35 35-35s35 15.67 35 35-15.67 35-35 35-35-15.67-35-35Z" fill="#fff" fill-opacity=".3"/><path d="M624 177c0-19.33 15.67-35 35-35s35 15.67 35 35-15.67 35-35 35-35-15.67-35-35Z" stroke="url(#b)" stroke-width="2"/><path d="M665 167h-3a5.004 5.004 0 0 0-3.536 1.464A5.004 5.004 0 0 0 657 172v3h-3v4h3v8h4v-8h3l1-4h-4v-3a.997.997 0 0 1 1-1h3v-4Z" stroke="#2AD012" stroke-width="2" stroke-linecap="round" stroke-linejoin="round"/><path d="M142 36c0-19.33 15.67-35 35-35s35 15.67 35 35-15.67 35-35 35-35-15.67-35-35Z" fill="#fff" fill-opacity=".3"/><path d="M142 36c0-19.33 15.67-35 35-35s35 15.67 35 35-15.67 35-35 35-35-15.67-35-35Z" stroke="url(#c)" stroke-width="2"/><path d="M176 35v-4m5 4v-4m5-5h-18v16h5v4l4-4h5l4-4V26Z" stroke="#2AD012" stroke-width="2" stroke-linecap="round" stroke-linejoin="round"/><path d="M532 42c0-19.33 15.67-35 35-35s35 15.67 35 35-15.67 35-35 35-35-15.67-35-35Z" fill="#fff" fill-opacity=".3"/><path d="M532 42c0-19.33 15.67-35 35-35s35 15.67 35 35-15.67 35-35 35-35-15.67-35-35Z" stroke="url(#d)" stroke-width="2"/><path d="M578.761 37.2s-.234-1.655-.956-2.381c-.914-.957-1.936-.961-2.405-1.018-3.356-.243-8.395-.243-8.395-.243h-.01s-5.039 0-8.395.243c-.469.057-1.491.061-2.405 1.018-.722.726-.951 2.38-.951 2.38S555 39.146 555 41.087v1.819c0 1.94.239 3.885.239 3.885s.234 1.655.952 2.382c.914.956 2.114.923 2.648 1.026 1.922.183 8.161.24 8.161.24s5.044-.01 8.4-.25c.469-.055 1.491-.06 2.405-1.016.722-.727.956-2.382.956-2.382s.239-1.94.239-3.886v-1.818c0-1.94-.239-3.886-.239-3.886Zm-14.241 7.912v-6.745l6.483 3.384-6.483 3.361Z" fill="#2AD012"/><defs><linearGradient id="a" x1="372" y1="67" x2="372" y2="139" gradientUnits="userSpaceOnUse"><stop stop-color="#5FEB3C" stop-opacity="0"/><stop offset="1" stop-color="#5FEB3C"/></linearGradient><linearGradient id="b" x1="659" y1="141" x2="659" y2="213" gradientUnits="userSpaceOnUse"><stop stop-color="#5FEB3C" stop-opacity="0"/><stop offset="1" stop-color="#5FEB3C"/></linearGradient><linearGradient id="c" x1="177" y1="0" x2="177" y2="72" gradientUnits="userSpaceOnUse"><stop stop-color="#5FEB3C" stop-opacity="0"/><stop offset="1" stop-color="#5FEB3C"/></linearGradient><linearGradient id="d" x1="567" y1="6" x2="567" y2="78" gradientUnits="userSpaceOnUse"><stop stop-color="#5FEB3C" stop-opacity="0"/><stop offset="1" stop-color="#5FEB3C"/></linearGradient></defs></svg>

<svg width="744" height="761" viewBox="0 0 744 761" fill="none" xmlns="http://www.w3.org/2000/svg">
    <g opacity="0.1">
        <path
            d="M243.979 98.129L500.763 98.1291C590.734 98.1291 673.636 120.828 718.574 157.6L847.14 262.842C858.974 272.468 867.652 282.691 873.206 293.182C883.494 312.389 883.431 332.536 872.954 351.698C867.494 361.891 859.037 371.815 847.644 381.202C847.581 381.351 847.329 381.501 847.171 381.65L811.732 410.691L776.198 381.65L718.637 334.506C673.699 297.734 590.797 275.035 500.827 275.035L244.042 275.035C154.072 275.035 71.1699 297.734 26.2319 334.506L-31.3291 381.65L-66.7682 410.691L-102.239 381.65C-102.397 381.501 -102.649 381.351 -102.712 381.202C-114.136 371.815 -122.562 361.891 -128.116 351.698C-138.562 332.536 -138.656 312.389 -128.369 293.182C-122.751 282.691 -114.073 272.468 -102.239 262.842L26.2319 157.6C71.1699 120.828 154.072 98.129 244.042 98.129L243.979 98.129Z"
            stroke="#55EB3C" stroke-width="2" stroke-miterlimit="10" />
        <path
            d="M243.978 39.9997L500.762 39.9998C590.733 39.9998 673.635 62.6987 718.573 99.4708L847.138 204.713C880.337 231.859 889.015 263.602 873.205 293.181C867.808 303.374 859.446 313.253 848.211 322.64C847.896 322.939 847.485 323.207 847.17 323.521L812.204 352.144L776.197 381.648L718.636 334.504C673.698 297.732 590.796 275.033 500.825 275.033L244.041 275.033C154.07 275.033 71.1687 297.732 26.2307 334.504L-31.3303 381.648L-67.2745 352.144L-102.24 323.52C-102.556 323.222 -102.966 322.953 -103.282 322.64C-114.548 313.253 -122.91 303.359 -128.37 293.181C-144.212 263.602 -135.439 231.859 -102.24 204.713L26.2306 99.4707C71.1686 62.6987 154.07 39.9997 244.041 39.9997L243.978 39.9997Z"
            stroke="#55EB3C" stroke-width="2" stroke-miterlimit="10" />
        <path
            d="M243.98 157.108L500.764 157.108C590.735 157.108 673.636 179.807 718.575 216.579L847.14 321.821C847.456 322.09 847.771 322.388 848.181 322.657C859.29 331.894 867.558 341.699 872.954 351.698C883.494 371.054 883.494 391.351 872.954 410.707C867.495 420.9 859.037 430.824 847.645 440.166C847.487 440.017 847.329 439.897 847.172 439.748L811.732 410.707L776.199 381.665L718.638 334.521C673.7 297.749 590.798 275.05 500.827 275.05L244.043 275.05C154.072 275.05 71.1706 297.749 26.2326 334.521L-31.3284 381.665L-66.7675 410.707L-102.238 439.748C-102.396 439.897 -102.554 440.017 -102.712 440.166C-114.135 430.809 -122.561 420.885 -128.116 410.707C-138.656 391.35 -138.656 371.054 -128.116 351.698C-122.656 341.699 -114.357 331.894 -103.28 322.657C-102.87 322.388 -102.554 322.09 -102.238 321.821L26.2326 216.579C71.1706 179.807 154.072 157.108 244.043 157.108L243.98 157.108Z"
            stroke="#55EB3C" stroke-width="2" stroke-miterlimit="10" />
        <path
            d="M243.982 216.072L500.766 216.072C590.737 216.072 673.639 238.771 718.577 275.543L812.177 352.161L847.142 380.785C847.3 380.934 847.458 381.053 847.616 381.203C859.039 390.56 867.465 400.514 872.925 410.707C883.465 430.018 883.465 450.329 872.925 469.641C867.465 459.492 859.008 449.568 847.616 440.181C847.458 440.032 847.3 439.913 847.142 439.763L811.703 410.722L776.169 381.68L718.608 334.536C673.67 297.764 590.769 275.065 500.798 275.065L244.014 275.065C154.043 275.065 71.1413 297.764 26.2033 334.536L-31.3577 381.68L-66.7968 410.722L-102.267 439.763C-102.425 439.912 -102.583 440.032 -102.741 440.181C-114.165 449.568 -122.591 459.492 -128.145 469.641C-138.685 450.329 -138.685 430.018 -128.145 410.707C-122.591 400.514 -114.165 390.56 -102.741 381.203C-102.583 381.053 -102.425 380.934 -102.267 380.785L-67.3018 352.161L26.2033 275.543C71.1413 238.771 154.043 216.072 244.014 216.072L243.982 216.072Z"
            stroke="#55EB3C" stroke-width="2" stroke-miterlimit="10" />
        <path
            d="M847.614 558.107C859.037 548.75 867.463 538.826 872.923 528.648C883.463 547.959 883.463 568.27 872.923 587.581C867.463 597.774 859.006 607.699 847.614 617.086C847.551 617.235 847.298 617.384 847.14 617.548L811.701 646.59L775.694 676.094L718.606 722.865C673.668 759.637 590.767 782.336 500.796 782.336L244.012 782.336C154.041 782.336 71.1391 759.637 26.2011 722.865L-30.8865 676.094L-66.8307 646.59L-102.301 617.548C-102.459 617.399 -102.712 617.25 -102.775 617.086C-114.199 607.699 -122.625 597.774 -128.179 587.581C-138.719 568.27 -138.719 547.959 -128.179 528.648C-122.625 538.84 -114.199 548.765 -102.775 558.107C-102.68 558.256 -102.459 558.406 -102.301 558.57L-66.8307 587.611L-30.8865 617.115L5.12061 646.62L26.2011 663.886C71.1391 700.658 154.041 723.357 244.012 723.357L500.796 723.357C590.767 723.357 673.668 700.658 718.606 663.886L739.655 646.62L775.662 617.115L811.67 587.611L847.109 558.57C847.267 558.421 847.519 558.271 847.582 558.107L847.614 558.107Z"
            stroke="#55EB3C" stroke-width="2" stroke-miterlimit="10" />
        <path
            d="M847.142 558.57C847.3 558.421 847.552 558.272 847.616 558.108C859.039 567.495 867.465 577.419 872.925 587.567C883.465 606.923 883.465 627.219 872.925 646.575C867.465 656.768 859.008 666.693 847.616 676.035C847.552 676.184 847.3 676.333 847.142 676.497L811.703 705.539L718.608 781.814C673.67 818.586 590.769 841.285 500.798 841.285L244.014 841.285C154.043 841.285 71.1411 818.586 26.203 781.814L-66.8287 705.539L-102.299 676.497C-102.457 676.348 -102.71 676.199 -102.773 676.035C-114.197 666.678 -122.623 656.753 -128.177 646.575C-138.717 627.219 -138.717 606.923 -128.177 587.567C-122.623 577.419 -115.207 568.718 -103.783 559.316C-103.688 559.466 -102.457 558.406 -102.268 558.555L-66.7972 587.597L-30.853 617.101L5.15414 646.605L26.2346 663.872C71.1726 700.644 154.074 723.343 244.045 723.343L500.829 723.343C590.8 723.343 673.702 700.644 718.64 663.872L739.689 646.605L775.696 617.101L811.703 587.597L847.142 558.555L847.142 558.57Z"
            stroke="#55EB3C" stroke-width="2" stroke-miterlimit="10" />
        <path
            d="M775.661 617.116L811.668 587.612L847.107 616.653C847.265 616.803 847.423 616.922 847.58 617.071C859.004 626.428 867.43 636.383 872.89 646.575C883.43 665.887 883.43 686.198 872.89 705.509C867.43 715.702 858.973 725.626 847.58 735.013C847.517 735.163 847.265 735.312 847.107 735.476L718.542 840.793C673.604 877.565 590.702 900.264 500.731 900.264L243.947 900.264C153.976 900.264 71.0743 877.565 26.1363 840.793L-102.335 735.476C-102.492 735.327 -102.745 735.177 -102.808 735.013C-114.232 725.626 -122.658 715.702 -128.212 705.509C-138.752 686.198 -138.752 665.887 -128.212 646.575C-122.658 636.382 -114.232 626.428 -102.808 617.071C-102.65 616.922 -102.492 616.803 -102.335 616.653L-66.8639 587.612L-30.9198 617.116L5.08738 646.62L26.1678 663.887C71.1059 700.659 154.008 723.358 243.978 723.358L500.763 723.358C590.733 723.358 673.635 700.659 718.573 663.887L739.622 646.62L775.629 617.116L775.661 617.116Z"
            stroke="#55EB3C" stroke-width="2" stroke-miterlimit="10" />
        <path
            d="M739.622 646.621L775.629 617.117L811.637 646.576L847.076 675.618C847.234 675.767 847.392 675.886 847.549 676.035C858.973 685.422 867.399 695.347 872.858 705.495C883.399 724.851 883.399 745.147 872.858 764.503C867.304 774.845 858.721 784.919 847.044 794.425L718.479 899.742C673.541 936.514 590.639 959.213 500.668 959.213L243.884 959.213C153.913 959.213 71.0117 936.514 26.0737 899.742L-102.397 794.425C-114.042 784.919 -122.657 774.845 -128.274 764.503C-138.815 745.147 -138.815 724.851 -128.274 705.495C-122.72 695.347 -114.295 685.422 -102.871 676.035C-102.713 675.886 -102.555 675.767 -102.397 675.617L-66.9267 646.576L-30.9825 617.116L5.02459 646.621L26.105 663.887C71.0431 700.659 153.945 723.358 243.916 723.358L500.7 723.358C590.67 723.358 673.572 700.659 718.51 663.887L739.559 646.621L739.622 646.621Z"
            stroke="#55EB3C" stroke-width="2" stroke-miterlimit="10" />
        <path
            d="M718.574 663.887L739.623 646.62L775.63 676.079L811.637 705.539L847.076 734.58C847.234 734.73 847.392 734.849 847.55 734.998C858.973 744.355 867.399 754.31 872.859 764.502C889.016 794.156 880.338 826.093 847.045 853.388L718.479 958.705C673.541 995.477 590.639 1018.18 500.668 1018.18L243.884 1018.18C153.914 1018.18 71.012 995.477 26.074 958.705L-102.397 853.388C-135.753 826.093 -144.432 794.156 -128.274 764.502C-122.72 754.309 -114.294 744.355 -102.87 734.998C-102.713 734.849 -102.555 734.73 -102.397 734.58L-66.9263 705.539L-30.9822 676.079L5.02491 646.62L26.1054 663.887C71.0434 700.659 153.945 723.358 243.916 723.358L500.7 723.358C590.671 723.358 673.573 700.659 718.511 663.887L718.574 663.887Z"
            stroke="#55EB3C" stroke-width="2" stroke-miterlimit="10" />
    </g>
    <foreignObject x="322" y="53" width="100" height="100">
        <div xmlns="http://www.w3.org/1999/xhtml"
            style="backdrop-filter:blur(7px);clip-path:url(#bgblur_0_11082_36606_clip_path);height:100%;width:100%"></div>
    </foreignObject>
    <g data-figma-bg-blur-radius="14">
        <path
            d="M372 68C391.33 68 407 83.67 407 103C407 122.33 391.33 138 372 138C352.67 138 337 122.33 337 103C337 83.67 352.67 68 372 68Z"
            fill="white" fill-opacity="0.3" />
        <path
            d="M372 68C391.33 68 407 83.67 407 103C407 122.33 391.33 138 372 138C352.67 138 337 122.33 337 103C337 83.67 352.67 68 372 68Z"
            stroke="url(#paint0_linear_11082_36606)" stroke-width="2" />
        <path fill-rule="evenodd" clip-rule="evenodd"
            d="M363 113H369.75V108.556H372V110.778H374.25V113H381V106.333H378.75V104.111H376.5V101.889H378.75V99.6666H381V93H374.25V95.2222H372V97.4445H369.75V93H363V113Z"
            fill="#5FEB3C" />
    </g>
    <foreignObject x="609" y="127" width="100" height="100">
        <div xmlns="http://www.w3.org/1999/xhtml"
            style="backdrop-filter:blur(7px);clip-path:url(#bgblur_1_11082_36606_clip_path);height:100%;width:100%"></div>
    </foreignObject>
    <g data-figma-bg-blur-radius="14">
        <path
            d="M659 142C678.33 142 694 157.67 694 177C694 196.33 678.33 212 659 212C639.67 212 624 196.33 624 177C624 157.67 639.67 142 659 142Z"
            fill="white" fill-opacity="0.3" />
        <path
            d="M659 142C678.33 142 694 157.67 694 177C694 196.33 678.33 212 659 212C639.67 212 624 196.33 624 177C624 157.67 639.67 142 659 142Z"
            stroke="url(#paint1_linear_11082_36606)" stroke-width="2" />
        <path
            d="M663.67 166H659.962V180.985C659.962 182.771 658.536 184.238 656.762 184.238C654.987 184.238 653.561 182.771 653.561 180.985C653.561 179.232 654.955 177.797 656.667 177.733V173.971C652.896 174.035 649.854 177.128 649.854 180.985C649.854 184.875 652.959 188 656.793 188C660.628 188 663.733 184.843 663.733 180.985V173.301C665.128 174.322 666.839 174.928 668.645 174.959V171.197C665.857 171.101 663.67 168.806 663.67 166Z"
            fill="#2AD012" />
    </g>
    <foreignObject x="127" y="-14" width="100" height="100">
        <div xmlns="http://www.w3.org/1999/xhtml"
            style="backdrop-filter:blur(7px);clip-path:url(#bgblur_2_11082_36606_clip_path);height:100%;width:100%"></div>
    </foreignObject>
    <g data-figma-bg-blur-radius="14">
        <path
            d="M177 1C196.33 1 212 16.67 212 36C212 55.33 196.33 71 177 71C157.67 71 142 55.33 142 36C142 16.67 157.67 1 177 1Z"
            fill="white" fill-opacity="0.3" />
        <path
            d="M177 1C196.33 1 212 16.67 212 36C212 55.33 196.33 71 177 71C157.67 71 142 55.33 142 36C142 16.67 157.67 1 177 1Z"
            stroke="url(#paint2_linear_11082_36606)" stroke-width="2" />
        <path d="M176 35V31M181 35V31M186 26H168V42H173V46L177 42H182L186 38V26Z" stroke="#2AD012"
            stroke-width="2" stroke-linecap="round" stroke-linejoin="round" />
    </g>
    <foreignObject x="517" y="-8" width="100" height="100">
        <div xmlns="http://www.w3.org/1999/xhtml"
            style="backdrop-filter:blur(7px);clip-path:url(#bgblur_3_11082_36606_clip_path);height:100%;width:100%"></div>
    </foreignObject>
    <g data-figma-bg-blur-radius="14">
        <path
            d="M567 7C586.33 7 602 22.67 602 42C602 61.33 586.33 77 567 77C547.67 77 532 61.33 532 42C532 22.67 547.67 7 567 7Z"
            fill="white" fill-opacity="0.3" />
        <path
            d="M567 7C586.33 7 602 22.67 602 42C602 61.33 586.33 77 567 77C547.67 77 532 61.33 532 42C532 22.67 547.67 7 567 7Z"
            stroke="url(#paint3_linear_11082_36606)" stroke-width="2" />
        <path
            d="M578.761 37.1998C578.761 37.1998 578.527 35.5451 577.805 34.8186C576.891 33.8623 575.869 33.8576 575.4 33.8014C572.044 33.5576 567.005 33.5576 567.005 33.5576H566.995C566.995 33.5576 561.956 33.5576 558.6 33.8014C558.131 33.8576 557.109 33.8623 556.195 34.8186C555.473 35.5451 555.244 37.1998 555.244 37.1998C555.244 37.1998 555 39.1451 555 41.0857V42.9045C555 44.8451 555.239 46.7904 555.239 46.7904C555.239 46.7904 555.473 48.4451 556.191 49.1717C557.105 50.1279 558.305 50.0951 558.839 50.1982C560.761 50.3811 567 50.4373 567 50.4373C567 50.4373 572.044 50.4279 575.4 50.1889C575.869 50.1326 576.891 50.1279 577.805 49.1717C578.527 48.4451 578.761 46.7904 578.761 46.7904C578.761 46.7904 579 44.8498 579 42.9045V41.0857C579 39.1451 578.761 37.1998 578.761 37.1998ZM564.52 45.1123V38.367L571.003 41.7514L564.52 45.1123Z"
            fill="#2AD012" />
    </g>
    <defs>
        <clipPath id="bgblur_0_11082_36606_clip_path" transform="translate(-322 -53)">
            <path
                d="M372 68C391.33 68 407 83.67 407 103C407 122.33 391.33 138 372 138C352.67 138 337 122.33 337 103C337 83.67 352.67 68 372 68Z" />
        </clipPath>
        <clipPath id="bgblur_1_11082_36606_clip_path" transform="translate(-609 -127)">
            <path
                d="M659 142C678.33 142 694 157.67 694 177C694 196.33 678.33 212 659 212C639.67 212 624 196.33 624 177C624 157.67 639.67 142 659 142Z" />
        </clipPath>
        <clipPath id="bgblur_2_11082_36606_clip_path" transform="translate(-127 14)">
            <path
                d="M177 1C196.33 1 212 16.67 212 36C212 55.33 196.33 71 177 71C157.67 71 142 55.33 142 36C142 16.67 157.67 1 177 1Z" />
        </clipPath>
        <clipPath id="bgblur_3_11082_36606_clip_path" transform="translate(-517 8)">
            <path
                d="M567 7C586.33 7 602 22.67 602 42C602 61.33 586.33 77 567 77C547.67 77 532 61.33 532 42C532 22.67 547.67 7 567 7Z" />
        </clipPath>
        <linearGradient id="paint0_linear_11082_36606" x1="372" y1="67" x2="372" y2="139"
            gradientUnits="userSpaceOnUse">
            <stop stop-color="#5FEB3C" stop-opacity="0" />
            <stop offset="1" stop-color="#5FEB3C" />
        </linearGradient>
        <linearGradient id="paint1_linear_11082_36606" x1="659" y1="141" x2="659" y2="213"
            gradientUnits="userSpaceOnUse">
            <stop stop-color="#5FEB3C" stop-opacity="0" />
            <stop offset="1" stop-color="#5FEB3C" />
        </linearGradient>
        <linearGradient id="paint2_linear_11082_36606" x1="177" y1="0" x2="177" y2="72"
            gradientUnits="userSpaceOnUse">
            <stop stop-color="#5FEB3C" stop-opacity="0" />
            <stop offset="1" stop-color="#5FEB3C" />
        </linearGradient>
        <linearGradient id="paint3_linear_11082_36606" x1="567" y1="6" x2="567" y2="78"
            gradientUnits="userSpaceOnUse">
            <stop stop-color="#5FEB3C" stop-opacity="0" />
            <stop offset="1" stop-color="#5FEB3C" />
        </linearGradient>
    </defs>
</svg>
